wdn/templates_4.0/images/infographics/rate-complement.svg

<svg xmlns="http://www.w3.org/2000/svg" width="180" height="142"><path fill="#008A2C" d="M141.1 130.2c0 1.6-.899 1.8-1.8 1.8h-98.7c-1.6 0-1.8-.9-1.8-1.8v-2.9c0-1.6.9-1.8 1.8-1.8h98.7c1.601 0 1.8.9 1.8 1.8v2.9zm-86.4-11.6c.8 0 1.8-.199 1.8-1.8v-15.5c0-.8-.2-1.8-1.8-1.8h-13.8c-.8 0-1.8.2-1.8 1.8v15.5c0 .8.2 1.8 1.8 1.8h13.8zm21 0c.8 0 1.8-.199 1.8-1.8v-26.1c0-.8-.2-1.8-1.8-1.8h-13.8c-.8 0-1.8.199-1.8 1.8v26.1c0 .8.2 1.8 1.8 1.8h13.8zm21 0c.8 0 1.8-.199 1.8-1.8v-36.6c0-.8-.2-1.8-1.8-1.8h-13.7c-.8 0-1.8.199-1.8 1.8v36.6c0 .8.2 1.8 1.8 1.8h13.7zm21 0c.8 0 1.8-.199 1.8-1.8v-50.8c0-.8-.2-1.8-1.8-1.8h-13.7c-.8 0-1.8.2-1.8 1.8v50.8c0 .8.2 1.8 1.8 1.8h13.7zm21.2 0c.8 0 1.8-.199 1.8-1.8v-64.4c0-.8-.2-1.8-1.8-1.8h-13.8c-.8 0-1.8.2-1.8 1.8v64.4c0 .8.2 1.8 1.8 1.8h13.8z"/></svg>

<?xml version="1.0" encoding="utf-8"?>
<!-- Generator: Adobe Illustrator 15.0.2, SVG Export Plug-In . SVG Version: 6.00 Build 0)  -->
<!DOCTYPE svg PUBLIC "-//W3C//DTD SVG 1.1//EN" "http://www.w3.org/Graphics/SVG/1.1/DTD/svg11.dtd">
<svg version="1.1" xmlns="http://www.w3.org/2000/svg" xmlns:xlink="http://www.w3.org/1999/xlink" x="0px" y="0px" width="180px"
	 height="142px" viewBox="0 0 180 142" style="enable-background:new 0 0 180 142;" xml:space="preserve">
<style type="text/css">
<![CDATA[
	.st0{fill:#008A2C;}
]]>
</style>
<g id="guides">
</g>
<g id="Layer_2">
	<path class="st0" d="M141.1,130.2L141.1,130.2c0,1.6-0.9,1.8-1.8,1.8l-98.7,0h0c-1.6,0-1.8-0.9-1.8-1.8l0,0v-2.9v0
		c0-1.6,0.9-1.8,1.8-1.8h0h98.7l0,0c1.6,0,1.8,0.9,1.8,1.8l0,0L141.1,130.2z M54.7,118.6L54.7,118.6c0.8,0,1.8-0.2,1.8-1.8l0,0
		v-15.5v0c0-0.8-0.2-1.8-1.8-1.8h0H40.9l0,0c-0.8,0-1.8,0.2-1.8,1.8l0,0l0,15.5c0,0.8,0.2,1.8,1.8,1.8l0,0L54.7,118.6z M75.7,118.6
		L75.7,118.6c0.8,0,1.8-0.2,1.8-1.8l0,0V90.7v0c0-0.8-0.2-1.8-1.8-1.8h0H61.9l0,0c-0.8,0-1.8,0.2-1.8,1.8v0l0,26.1
		c0,0.8,0.2,1.8,1.8,1.8l0,0L75.7,118.6z M96.7,118.6L96.7,118.6c0.8,0,1.8-0.2,1.8-1.8l0,0V80.2v0c0-0.8-0.2-1.8-1.8-1.8h0H83l0,0
		c-0.8,0-1.8,0.2-1.8,1.8v0l0,36.6c0,0.8,0.2,1.8,1.8,1.8l0,0L96.7,118.6z M117.7,118.6L117.7,118.6c0.8,0,1.8-0.2,1.8-1.8l0,0V66v0
		c0-0.8-0.2-1.8-1.8-1.8h0H104l0,0c-0.8,0-1.8,0.2-1.8,1.8v0l0,50.8c0,0.8,0.2,1.8,1.8,1.8l0,0L117.7,118.6z M138.9,118.6
		L138.9,118.6c0.8,0,1.8-0.2,1.8-1.8l0,0V52.4v0c0-0.8-0.2-1.8-1.8-1.8h0h-13.8l0,0c-0.8,0-1.8,0.2-1.8,1.8v0l0,64.4
		c0,0.8,0.2,1.8,1.8,1.8l0,0L138.9,118.6z"/>
</g>
</svg>
